!!!COM: Music21
!!!OTL: Rumba do Fieiteiro
!!!OMV: pezas_rumbas_rumba-do-fieiteiro_rumba-do-fieiteiro-partitura.musicxml
**kern
*I"Gaita
*I'Bag
*clefG^2
*k[]
*M2/4
*MM125
=1
!LO:TX:a:t=[quarter]=125
4r
8cccL
16bbL
16aaJJ
=||
[2gg
=
8ggL]
16ffL
16eeJJ
8ddL
16eeL
16ffJJ
=
8aa
[4.gg
=
4gg]
8cccL
16bbL
16aaJJ
=
[2gg
=
8ggL]
16ffL
16eeJJ
8ddL
16eeL
16ffJJ
=
[2ee
=
4ee]
8cccL
16bbL
16aaJJ
=||
[2gg
=
8ggL]
16ffL
16eeJJ
8ddL
16eeL
16ffJJ
!!linebreak:original
=
8aa
[4.gg
=
4gg]
8cccL
16bbL
16aaJJ
=
[2gg
=
8ggL]
16ffL
16eeJJ
8ddL
16eeL
16ffJJ
=
[2ee
=
4ee]
4ee
!!linebreak:original
=||
[2gg
=
8ggL]
16ffL
16eeJJ
8ddL
16eeL
16ffJJ
=
8aa
[4.gg
=
4gg]
4ee
=
[2gg
=
8ggL]
16ffL
16eeJJ
8ddL
16eeL
16ffJJ
=
[2ee
=
4ee]
4ee
!!linebreak:original
=||
[2gg
=
8ggL]
16ffL
16eeJJ
8ddL
16eeL
16ffJJ
=
8aa
[4.gg
=
4gg]
4ee
=
[2gg
=
8ggL]
16ffL
16eeJJ
8ddL
16eeL
16ffJJ
=
[2ee
=
8.eeL]
16cccJk
16bbLL
16ccc
16bb
16aaJJ
!!linebreak:original
=||
8.ggL
16eeJk
16ggLL
16ee
16gg
16eeJJ
=
8.ggL
16cccJk
16bbLL
16ccc
16bb
16aaJJ
=
8.ggL
16eeJk
16ggLL
16ee
16gg
16eeJJ
=
8.ggL
16ggJk
16ffLL
16gg
16aa
16ffJJ
=
8.ddL
16ffJk
16eeLL
16ff
16gg
16eeJJ
=
8.ccL
16eeJk
16ddLL
16cc
16b
16ddJJ
=
[2cc
!!linebreak:original
=
8.ccL]
16cccJk
16bbLL
16ccc
16bb
16aaJJ
!!linebreak:original
=||
8.ggL
16eeJk
16ggLL
16ee
16gg
16eeJJ
=
8.ggL
16cccJk
16bbLL
16ccc
16bb
16aaJJ
=
8.ggL
16eeJk
16ggLL
16ee
16gg
16eeJJ
=
8.ggL
16ggJk
16ffLL
16gg
16aa
16ffJJ
=
8.ddL
16ffJk
16eeLL
16ff
16gg
16eeJJ
=
8.ccL
16eeJk
16ddLL
16cc
16b
16ddJJ
=
[2cc
=
4cc]
8eeL
16ggL
16eeJJ
!!linebreak:original
=||
4gg
8eeL
16ffL
16eeJJ
=
4ff
8ddL
16eeL
16ddJJ
=
16eeKL
8dd
16ccJk
16bLL
16cc
16dd
16ccJJ
=
4gg
8eeL
16ggL
16eeJJ
=
4gg
8eeL
16ffL
16eeJJ
=
4ff
8ddL
16eeL
16ffJJ
!!linebreak:original
=
8.ggL
16aaJk
16ggLL
16ff
16ee
16ddJJ
=
4cc
8eeL
16ggL
16eeJJ
=||
4gg
8eeL
16ffL
16eeJJ
=
4ff
8ddL
16eeL
16ddJJ
=
16eeKL
8dd
16ccJk
16bLL
16cc
16dd
16ccJJ
=
4gg
8eeL
16ggL
16eeJJ
=
4gg
8eeL
16ffL
16eeJJ
=
4ff
8ddL
16eeL
16ffJJ
!!linebreak:original
=
8.ggL
16aaJk
16ggLL
16ff
16ee
16ddJJ
=
[2cc
=
4cc]
8cccL
16bbL
16aaJJ
==
*-
